static/img/kroki/51e46e72dda6a6d934cb69af3e371698.svg

<?xml version="1.0" encoding="us-ascii" standalone="no"?><svg xmlns="http://www.w3.org/2000/svg" xmlns:xlink="http://www.w3.org/1999/xlink" contentStyleType="text/css" height="252px" preserveAspectRatio="none" style="width:366px;height:252px;" version="1.1" viewBox="0 0 366 252" width="366px" zoomAndPan="magnify"><defs/><g><!--class gcp_disk--><g id="elem_gcp_disk"><rect codeLine="23" fill="#3D176E" height="39.7891" id="gcp_disk" rx="2.5" ry="2.5" style="stroke:#000D19;stroke-width:0.5;" width="112" x="7" y="206.58"/><ellipse cx="22" cy="226.4745" fill="#ADD1B2" rx="11" ry="11" style="stroke:#181818;stroke-width:1.0;"/><path d="M24.9688,232.1152 Q24.3906,232.412 23.75,232.5527 Q23.1094,232.7089 22.4063,232.7089 Q19.9063,232.7089 18.5781,231.0683 Q17.2656,229.412 17.2656,226.287 Q17.2656,223.162 18.5781,221.5058 Q19.9063,219.8495 22.4063,219.8495 Q23.1094,219.8495 23.75,220.0058 Q24.4063,220.162 24.9688,220.4589 L24.9688,223.1777 Q24.3438,222.5995 23.75,222.3339 Q23.1563,222.0527 22.5313,222.0527 Q21.1875,222.0527 20.5,223.1308 Q19.8125,224.1933 19.8125,226.287 Q19.8125,228.3808 20.5,229.4589 Q21.1875,230.5214 22.5313,230.5214 Q23.1563,230.5214 23.75,230.2558 Q24.3438,229.9745 24.9688,229.3964 L24.9688,232.1152 Z " fill="#000000"/><text fill="#D9B8FF" font-family="Helvetica" font-size="17" lengthAdjust="spacing" textLength="70" x="41" y="232.3598">gcp_disk</text></g><!--class gcp_disk_type--><g id="elem_gcp_disk_type"><rect codeLine="26" fill="#3D176E" height="39.7891" id="gcp_disk_type" rx="2.5" ry="2.5" style="stroke:#000D19;stroke-width:0.5;" width="158" x="81" y="106.79"/><ellipse cx="96" cy="126.6845" fill="#ADD1B2" rx="11" ry="11" style="stroke:#181818;stroke-width:1.0;"/><path d="M98.9688,132.3252 Q98.3906,132.622 97.75,132.7627 Q97.1094,132.9189 96.4063,132.9189 Q93.9063,132.9189 92.5781,131.2783 Q91.2656,129.622 91.2656,126.497 Q91.2656,123.372 92.5781,121.7158 Q93.9063,120.0595 96.4063,120.0595 Q97.1094,120.0595 97.75,120.2158 Q98.4063,120.372 98.9688,120.6689 L98.9688,123.3877 Q98.3438,122.8095 97.75,122.5439 Q97.1563,122.2627 96.5313,122.2627 Q95.1875,122.2627 94.5,123.3408 Q93.8125,124.4033 93.8125,126.497 Q93.8125,128.5908 94.5,129.6689 Q95.1875,130.7314 96.5313,130.7314 Q97.1563,130.7314 97.75,130.4658 Q98.3438,130.1845 98.9688,129.6064 L98.9688,132.3252 Z " fill="#000000"/><text fill="#D9B8FF" font-family="Helvetica" font-size="17" lengthAdjust="spacing" textLength="116" x="115" y="132.5698">gcp_disk_type</text></g><!--class gcp_node_template--><g id="elem_gcp_node_template"><rect codeLine="29" fill="#3D176E" height="39.7891" id="gcp_node_template" rx="2.5" ry="2.5" style="stroke:#000D19;stroke-width:0.5;" width="205" x="154.5" y="206.58"/><ellipse cx="169.5" cy="226.4745" fill="#ADD1B2" rx="11" ry="11" style="stroke:#181818;stroke-width:1.0;"/><path d="M172.4688,232.1152 Q171.8906,232.412 171.25,232.5527 Q170.6094,232.7089 169.9063,232.7089 Q167.4063,232.7089 166.0781,231.0683 Q164.7656,229.412 164.7656,226.287 Q164.7656,223.162 166.0781,221.5058 Q167.4063,219.8495 169.9063,219.8495 Q170.6094,219.8495 171.25,220.0058 Q171.9063,220.162 172.4688,220.4589 L172.4688,223.1777 Q171.8438,222.5995 171.25,222.3339 Q170.6563,222.0527 170.0313,222.0527 Q168.6875,222.0527 168,223.1308 Q167.3125,224.1933 167.3125,226.287 Q167.3125,228.3808 168,229.4589 Q168.6875,230.5214 170.0313,230.5214 Q170.6563,230.5214 171.25,230.2558 Q171.8438,229.9745 172.4688,229.3964 L172.4688,232.1152 Z " fill="#000000"/><text fill="#D9B8FF" font-family="Helvetica" font-size="17" lengthAdjust="spacing" textLength="163" x="188.5" y="232.3598">gcp_node_template</text></g><!--class gcp_sku--><g id="elem_gcp_sku"><rect codeLine="32" fill="#3D176E" height="39.7891" id="gcp_sku" rx="2.5" ry="2.5" style="stroke:#000D19;stroke-width:0.5;" width="108" x="106" y="7"/><ellipse cx="121" cy="26.8945" fill="#ADD1B2" rx="11" ry="11" style="stroke:#181818;stroke-width:1.0;"/><path d="M123.9688,32.5352 Q123.3906,32.832 122.75,32.9727 Q122.1094,33.1289 121.4063,33.1289 Q118.9063,33.1289 117.5781,31.4883 Q116.2656,29.832 116.2656,26.707 Q116.2656,23.582 117.5781,21.9258 Q118.9063,20.2695 121.4063,20.2695 Q122.1094,20.2695 122.75,20.4258 Q123.4063,20.582 123.9688,20.8789 L123.9688,23.5977 Q123.3438,23.0195 122.75,22.7539 Q122.1563,22.4727 121.5313,22.4727 Q120.1875,22.4727 119.5,23.5508 Q118.8125,24.6133 118.8125,26.707 Q118.8125,28.8008 119.5,29.8789 Q120.1875,30.9414 121.5313,30.9414 Q122.1563,30.9414 122.75,30.6758 Q123.3438,30.3945 123.9688,29.8164 L123.9688,32.5352 Z " fill="#000000"/><text fill="#D9B8FF" font-family="Helvetica" font-size="17" lengthAdjust="spacing" textLength="66" x="140" y="32.7798">gcp_sku</text></g><!--link gcp_disk_type to gcp_disk--><g id="link_gcp_disk_type_gcp_disk"><path codeLine="35" d="M140.84,147.01 C123.83,164.15 103.3452,184.8 86.3452,201.94 " fill="none" id="gcp_disk_type-to-gcp_disk" style="stroke:#1A83AF;stroke-width:2.0;"/><polygon fill="#1A83AF" points="82.12,206.2,91.2978,202.6268,85.641,202.65,85.6178,196.9932,82.12,206.2" style="stroke:#1A83AF;stroke-width:2.0;"/></g><!--link gcp_disk_type to gcp_node_template--><g id="link_gcp_disk_type_gcp_node_template"><path codeLine="36" d="M179.16,147.01 C196.17,164.15 216.6548,184.8 233.6548,201.94 " fill="none" id="gcp_disk_type-to-gcp_node_template" style="stroke:#1A83AF;stroke-width:2.0;"/><polygon fill="#1A83AF" points="237.88,206.2,234.3822,196.9932,234.359,202.65,228.7022,202.6268,237.88,206.2" style="stroke:#1A83AF;stroke-width:2.0;"/></g><!--link gcp_sku to gcp_disk_type--><g id="link_gcp_sku_gcp_disk_type"><path codeLine="37" d="M160,47.22 C160,64.36 160,83.27 160,100.41 " fill="none" id="gcp_sku-to-gcp_disk_type" style="stroke:#1A83AF;stroke-width:2.0;"/><polygon fill="#1A83AF" points="160,106.41,164,97.41,160,101.41,156,97.41,160,106.41" style="stroke:#1A83AF;stroke-width:2.0;"/></g><!--SRC=[XPBDQiCm48JlVWf1pW6xeNLoARY6q5v2QNeh9SZMoXQs9RDQDwIbxzuuQO8Yv-Swyp4pArGg0GoQbZQiWIO3j86jb6uvyeObY6QTcjeW6qd9vIJspRdHT1DOy0ROCzHVG2hdFl5UghpIO2sxSwmddbS5cawBVJmXrtPhWIQ7IcjkRKA4Aki8d35Ybasbz4a_T3GHKVm00yoW0Fn7mZ0KqSn7RbPTlVj8BDKtiCXzj8KX6CmSLEoegojxmXavEFJWNzpuoeLGkc3tZlQstuGQy4HVbboOTKzBNbktnX8W6Dgqa0wkWjbKoFWi_7893lB-wLYHjokXRCL-Wk3NqrPzW6ze8s15stzUSngOjkhsqcd4-6CK9TD9ClySFnxJRp4dHS4X_MpKBY7u0m00]--></g></svg>

<svg xmlns="http://www.w3.org/2000/svg" width="366" height="252" viewBox="0 0 366 252"><rect width="112" height="39.789" x="7" y="206.58" fill="#3D176E" rx="2.5" ry="2.5" style="stroke:#000d19;stroke-width:.5"/><circle cx="22" cy="226.475" r="11" fill="#ADD1B2" style="stroke:#181818;stroke-width:1"/><path d="M24.969 232.115q-.578.297-1.219.438-.64.156-1.344.156-2.5 0-3.828-1.64-1.312-1.657-1.312-4.782t1.312-4.781q1.328-1.656 3.828-1.656.703 0 1.344.156.656.156 1.219.453v2.719q-.625-.578-1.219-.844-.594-.281-1.219-.281-1.343 0-2.031 1.078-.687 1.062-.687 3.156t.687 3.172q.688 1.062 2.031 1.062.625 0 1.219-.265.594-.281 1.219-.86z"/><text x="41" y="232.36" fill="#D9B8FF" font-family="Helvetica" font-size="17" textLength="70">gcp_disk</text><rect width="158" height="39.789" x="81" y="106.79" fill="#3D176E" rx="2.5" ry="2.5" style="stroke:#000d19;stroke-width:.5"/><circle cx="96" cy="126.684" r="11" fill="#ADD1B2" style="stroke:#181818;stroke-width:1"/><path d="M98.969 132.325q-.578.297-1.219.438-.64.156-1.344.156-2.5 0-3.828-1.64-1.312-1.657-1.312-4.782t1.312-4.781q1.328-1.656 3.828-1.656.703 0 1.344.156.656.156 1.219.453v2.719q-.625-.579-1.219-.844-.594-.281-1.219-.281-1.344 0-2.031 1.078-.687 1.062-.687 3.156t.687 3.172q.688 1.062 2.031 1.062.625 0 1.219-.265.594-.281 1.219-.86z"/><text x="115" y="132.57" fill="#D9B8FF" font-family="Helvetica" font-size="17" textLength="116">gcp_disk_type</text><rect width="205" height="39.789" x="154.5" y="206.58" fill="#3D176E" rx="2.5" ry="2.5" style="stroke:#000d19;stroke-width:.5"/><circle cx="169.5" cy="226.475" r="11" fill="#ADD1B2" style="stroke:#181818;stroke-width:1"/><path d="M172.469 232.115q-.578.297-1.219.438-.64.156-1.344.156-2.5 0-3.828-1.64-1.312-1.657-1.312-4.782t1.312-4.781q1.328-1.656 3.828-1.656.703 0 1.344.156.656.156 1.219.453v2.719q-.625-.578-1.219-.844-.594-.281-1.219-.281-1.344 0-2.031 1.078-.687 1.062-.687 3.156t.687 3.172q.688 1.062 2.031 1.062.625 0 1.219-.265.594-.281 1.219-.86z"/><text x="188.5" y="232.36" fill="#D9B8FF" font-family="Helvetica" font-size="17" textLength="163">gcp_node_template</text><rect width="108" height="39.789" x="106" y="7" fill="#3D176E" rx="2.5" ry="2.5" style="stroke:#000d19;stroke-width:.5"/><circle cx="121" cy="26.895" r="11" fill="#ADD1B2" style="stroke:#181818;stroke-width:1"/><path d="M123.969 32.535q-.578.297-1.219.438-.64.156-1.344.156-2.5 0-3.828-1.64-1.312-1.657-1.312-4.782t1.312-4.781q1.328-1.656 3.828-1.656.703 0 1.344.156.656.156 1.219.453v2.719q-.625-.578-1.219-.844-.594-.281-1.219-.281-1.344 0-2.031 1.078-.687 1.062-.687 3.156t.687 3.172q.688 1.062 2.031 1.062.625 0 1.219-.265.594-.281 1.219-.86z"/><text x="140" y="32.78" fill="#D9B8FF" font-family="Helvetica" font-size="17" textLength="66">gcp_sku</text><path fill="none" d="M140.84 147.01c-17.01 17.14-37.495 37.79-54.495 54.93" style="stroke:#1a83af;stroke-width:2"/><path fill="#1A83AF" d="m82.12 206.2 9.178-3.573-5.657.023-.023-5.657z" style="stroke:#1a83af;stroke-width:2"/><path fill="none" d="M179.16 147.01c17.01 17.14 37.495 37.79 54.495 54.93" style="stroke:#1a83af;stroke-width:2"/><path fill="#1A83AF" d="m237.88 206.2-3.498-9.207-.023 5.657-5.657-.023z" style="stroke:#1a83af;stroke-width:2"/><path fill="none" d="M160 47.22v53.19" style="stroke:#1a83af;stroke-width:2"/><path fill="#1A83AF" d="m160 106.41 4-9-4 4-4-4z" style="stroke:#1a83af;stroke-width:2"/></svg>
